wp-content/uploads/symbols/SVG/Cloud 6.svg

<svg xmlns="http://www.w3.org/2000/svg" width="512" height="512">
  <defs>
    <pattern id="a" data-name="671" width="54.13" height="54.13" patternTransform="matrix(3.81 0 0 3.81 -733.32 -628.07)" patternUnits="userSpaceOnUse">
      <path fill="none" d="M0 0h54.13v54.13H0z"/>
      <path d="M1 4.23C2.21 4 4 2.9 7.12 3.31m2 .42A8.89 8.89 0 0 0 16 4m1.71-.69c3.58-.66 6 .92 7.5 1.09m2.08 0c1.5 0 2.59-.75 3.83-1.09a7.28 7.28 0 0 1 4.42.09m1.67.66c1.17.25 5.17.34 7.33-.75m1.84 0a7.24 7.24 0 0 1 3.55.5c1.36.92 3.19.42 3.61.5M3 8.15a9.51 9.51 0 0 1-3 .77m12 .23c-.42-.09-2.25.41-3.61-.5a7.17 7.17 0 0 0-3.56-.5m33.38 5.91c1.25-.25 3-1.33 6.17-.91m2 .41a8.86 8.86 0 0 0 6.83.25m-31.83 29c-3.17-.41-4.92.67-6.17.92m15-.25a8.86 8.86 0 0 1-6.83-.25m16.08.67c-1.5-.17-3.92-1.75-7.5-1.09m9.58 1.09c1.5 0 2.58-.75 3.84-1.09a7.25 7.25 0 0 1 4.41.09m-44.67-.25a12.61 12.61 0 0 1-5.12.9m14.12.1c-.41-.09-2.24.41-3.6-.5a7.17 7.17 0 0 0-3.52-.5M0 53.49a9 9 0 0 0 1-.34m9.29.41c-1.5-.16-3.91-1.75-7.5-1.08m17.83.08a7.32 7.32 0 0 0-4.41-.08c-1.25.33-2.33 1.08-3.83 1.08m17.24-1.08c-2.16 1.08-6.16 1-7.33.75m16.33.25c-.41-.08-2.24.42-3.6-.5a7.28 7.28 0 0 0-3.56-.5m14.92-.17c-3.17-.41-4.92.67-6.17.92M4.92 18.19a10.19 10.19 0 0 0-4.92.54m13.75.12a8.82 8.82 0 0 1-6.83-.25m16.08.67c-1.5-.17-3.92-1.75-7.5-1.08m17.83.08a7.24 7.24 0 0 0-4.41-.08c-1.25.33-2.34 1.08-3.84 1.08m17.25-1.08c-2.16 1.08-6.16 1-7.33.75m9.17-.75a7.17 7.17 0 0 1 3.56.5c1.35.91 3.19.41 3.6.5M7.17 32.81c-3.17-.41-4.92.67-6.17.92m8.17-.5a8.86 8.86 0 0 0 6.83.25m1.75-.67c3.58-.66 6 .92 7.5 1.09m2.08 0c1.5 0 2.59-.75 3.84-1.09a7.25 7.25 0 0 1 4.41.09m1.67.66c1.17.25 5.17.34 7.33-.75m1.84 0a7.28 7.28 0 0 1 3.56.5c1.35.92 3.19.42 3.6.5M7.29 47.69c-3.17-.42-4.91.66-6.17.91m8.17-.5a8.82 8.82 0 0 0 6.83.25m1.76-.66c3.58-.67 6 .91 7.5 1.08m2.08 0c1.5 0 2.58-.75 3.83-1.08a7.27 7.27 0 0 1 4.42.08m1.67.67c1.16.25 5.16.33 7.33-.75m9 1c-.42-.09-2.25.41-3.61-.5a7.17 7.17 0 0 0-3.56-.5M19 8.19c-3.16-.42-4.92.66-6.16.91m15.04-.25A8.85 8.85 0 0 1 21 8.6m8.62-.41c3.59-.67 6 .91 7.5 1.08m2.09 0c1.5 0 2.58-.75 3.83-1.08a7.27 7.27 0 0 1 4.42.08M7.88 14.19C6.38 14 4 12.44.38 13.1M10 14.19c1.5 0 2.58-.75 3.83-1.09a7.28 7.28 0 0 1 4.42.09m1.63.66c1.16.25 5.16.34 7.33-.75m1.79 0a7.28 7.28 0 0 1 3.56.5c1.36.92 3.19.42 3.61.5M7 22.94c-3.17-.42-4.92.66-6.17.91m14.96-.25A8.82 8.82 0 0 1 9 23.35m8.54-.41c3.58-.67 6 .91 7.5 1.08m2.08-.02c1.5 0 2.59-.75 3.84-1.08a7.27 7.27 0 0 1 4.42.08m1.62.69c1.17.25 5.17.33 7.34-.75m1.87 0a7.17 7.17 0 0 1 3.56.5c1.35.91 3.19.41 3.61.5m-32.67 3.87c-3.17-.41-4.92.67-6.17.92m15-.25a8.87 8.87 0 0 1-6.83-.25m16.08.67c-1.5-.17-3.91-1.75-7.5-1.09m9.59 1.09c1.5 0 2.58-.75 3.83-1.09a7.25 7.25 0 0 1 4.41.09M15.79 38.85c1.25-.25 3-1.33 6.17-.91m2.04.41a8.82 8.82 0 0 0 6.83.25m1.71-.66c3.58-.67 6 .91 7.5 1.08m2.08-.02c1.5 0 2.59-.75 3.84-1.08a7.27 7.27 0 0 1 4.42.08M5.5 37.81a13.14 13.14 0 0 1-5.5.91m7.33-.91a7.28 7.28 0 0 1 3.56.5c1.36.92 3.19.42 3.61.5M4.12 27.94a11.23 11.23 0 0 1-4.12.88m13.12.12c-.41-.09-2.24.41-3.6-.5a7.17 7.17 0 0 0-3.52-.5M49.75 8.9a16.48 16.48 0 0 0 4.37 0m-2.2 34.5a11.58 11.58 0 0 0 2.2.15m-5.79 9.35a9.35 9.35 0 0 0 5.79.59M52.88 19.1a10.14 10.14 0 0 0 1.24-.37m-1.83 19.83a10.3 10.3 0 0 0 1.83.16m-3.2-10.03a14.85 14.85 0 0 0 3.2.13" stroke-width=".3" fill="none" stroke="#000"/>
      <path d="M.46 1.88h0m2-.32h0M4.28.94h0M6.2.81h0m1.95.13h0m1.94.44h0m1.85.37h0m2.02.13h0m2.06-.32h0m1.82-.62h0m1.92-.13h0m1.95.13h0m1.94.44h0m1.73.37h0m2.01.07h0m2.06-.32h0m1.81-.62h0m1.93-.12h0m1.95.12h0m1.94.44h0m1.9.37h0m1.98.13h0m2.05-.32h0m1.82-.62h0m1.93-.12h0m1.95.12h0m1.94.44h0m1.73.37h0M.82 6.45h0m1.82-.62h0m1.93-.13h0m1.95.13h0m1.94.44h0m1.84.37h0m2.03.13h0m2.06-.32h0m1.82-.62h0m1.92-.13h0m1.95.13h0m1.94.44h0m1.73.37h0m2.01.07h0m2.05-.32h0m1.82-.62h0m1.93-.12h0m1.95.12h0m1.93.44h0m1.91.37h0m1.97.13h0m2.06-.32h0m1.82-.62h0m1.93-.12h0m1.94.12h0m1.94.44h0m1.73.37h0m1.99.07h0M.48 10.83h0m1.92-.13h0m1.95.13h0m1.94.44h0m1.84.37h0m2.03.13h0m2.06-.32h0m1.82-.62h0m1.92-.13h0m1.95.13h0m1.94.44h0m1.73.37h0m2.01.07h0m2.06-.32h0m1.81-.62h0m1.93-.12h0m1.95.12h0m1.94.44h0m1.9.37h0m1.98.13h0m2.05-.32h0m1.82-.62h0m1.93-.12h0m1.95.12h0m1.93.44h0m1.74.37h0m1.99.07h0m2.05-.32h0M.64 15.66h0m1.93-.12h0m1.95.12h0m1.94.44h0m1.84.37h0m2.03.13h0m2.06-.32h0m1.82-.62h0m1.92-.12h0m1.95.12h0m1.94.44h0m1.73.37h0m2.01.07h0m2.05-.32h0m1.82-.62h0m1.93-.12h0m1.95.12h0m1.93.45h0m1.91.37h0m1.97.12h0m2.06-.32h0m1.82-.62h0m1.93-.12h0m1.94.12h0m1.94.45h0m1.73.37h0m1.99.06h0m2.06-.31h0M1.16 21.45h0m1.82-.62h0m1.92-.13h0m1.95.13h0m1.94.44h0m1.84.37h0m2.03.13h0m2.06-.32h0m1.82-.62h0m1.92-.13h0m1.95.13h0m1.94.44h0m1.73.37h0m2.01.07h0m2.06-.32h0m1.81-.62h0m1.93-.12h0m1.95.12h0m1.94.44h0m1.9.37h0m1.98.13h0m2.05-.32h0m1.82-.62h0m1.93-.12h0m1.95.12h0m1.93.44h0m1.74.37h0m1.99.07h0M.99 26.11h0m1.82-.62h0m1.93-.12h0m1.94.12h0m1.94.45h0m1.85.37h0m2.03.12h0m2.05-.32h0m1.82-.62h0m1.93-.12h0m1.95.12h0m1.93.45h0m1.74.37h0m2 .07h0m2.06-.32h0m1.82-.62h0m1.92-.13h0m1.95.13h0m1.94.44h0m1.9.37h0m1.98.13h0m2.06-.32h0m1.82-.62h0m1.92-.13h0m1.95.13h0m1.94.44h0m1.73.37h0m1.99.07h0M.47 31.43h0m1.85-.32h0m1.82-.62h0m1.93-.12h0m1.95.12h0m1.94.45h0m1.84.37h0m2.03.12h0m2.06-.32h0m1.82-.62h0m1.92-.12h0m1.95.12h0m1.94.45h0m1.73.37h0m2.01.07h0m2.05-.32h0m1.82-.62h0m1.93-.13h0m1.95.13h0m1.93.44h0m1.91.37h0m1.97.13h0m2.06-.32h0m1.82-.62h0m1.93-.13h0m1.94.13h0m1.94.44h0m1.73.37h0M1.32 36.43h0m2-.32h0m1.82-.62h0m1.93-.12h0m1.95.12h0m1.94.45h0m1.84.37h0m2.03.12h0m2.06-.32h0m1.82-.62h0m1.92-.12h0m1.95.12h0m1.94.45h0m1.73.37h0m2.01.07h0m2.05-.32h0m1.82-.62h0m1.93-.13h0m1.95.13h0m1.93.44h0m1.91.37h0m1.97.13h0m2.06-.32h0m1.82-.62h0m1.93-.13h0m1.94.13h0m1.94.44h0m1.73.37h0M1.16 41.27h0m2-.32h0m1.82-.62h0m1.92-.13h0m1.95.13h0m1.94.44h0m1.84.37h0m2.03.13h0m2.06-.32h0m1.82-.62h0m1.92-.13h0m1.95.13h0m1.94.44h0m1.73.37h0m2.01.07h0m2.06-.32h0m1.81-.62h0m1.93-.12h0m1.95.12h0m1.94.44h0m1.9.37h0m1.98.13h0m2.05-.32h0m1.82-.62h0m1.93-.12h0m1.95.12h0m1.93.44h0m1.74.37h0m-51.2 4.91h0m1.81-.62h0m1.93-.13h0m1.95.13h0m1.94.44h0m1.84.37h0m2.03.13h0m2.06-.32h0m1.82-.62h0m1.92-.13h0m1.95.13h0m1.94.44h0m1.73.37h0m2.01.07h0m2.05-.32h0m1.82-.62h0m1.93-.12h0m1.95.12h0m1.93.45h0m1.91.37h0m1.98.12h0m2.05-.32h0m1.82-.62h0m1.93-.12h0m1.95.12h0m1.93.45h0m1.73.37h0m1.99.06h0M.6 50.88h0m1.82-.62h0m1.93-.13h0m1.95.13h0m1.94.44h0m1.84.37h0m2.03.13h0m2.06-.32h0m1.82-.62h0m1.92-.13h0m1.95.13h0m1.94.44h0m1.73.37h0m2.01.07h0m2.05-.32h0m1.82-.62h0m1.93-.12h0m1.95.12h0m1.93.45h0m1.91.36h0m1.97.13h0m2.06-.32h0m1.82-.62h0m1.93-.12h0m1.94.12h0m1.94.45h0m1.73.36h0m1.99.07h0" stroke-linecap="round" stroke-width=".7" fill="none" stroke="#000"/>
    </pattern>
    <filter id="b" x="-.05" y="1.11" width="503.55" height="388.04" filterUnits="userSpaceOnUse" color-interpolation-filters="sRGB">
      <feFlood flood-color="#fff" result="bg"/>
      <feBlend in="SourceGraphic" in2="bg"/>
    </filter>
    <mask id="c" x="-.05" y="1.11" width="503.55" height="388.04" maskUnits="userSpaceOnUse">
      <path data-name="Cloud 6" d="M194.63 142.85c-53.32 0-105.25 42.19-115.91 92.73-83.43 30.24-48.22 90.41 0 104.31 0 0 3.53 37.09 67 37.09 1.58 0 3.19 0 4.85-.07 19.14 9.17 36.76 12.24 51.78 12.24 30.46 0 50.22-12.62 50.22-12.62s9.55.39 24.27.39c38.1 0 110.86-2.65 142.63-21.72 10 2.74 18.31 3.9 25.17 3.9 35.92 0 32.32-31.73 32.32-31.73s28.54-7.54 26.42-32.91c-1.59-19.17-19.5-30-36.38-30-7.62 0-15 2.19-20.63 6.8-23.2-26.17-62.25-36.23-93.59-36.23a123.33 123.33 0 0 0-22.31 1.97c-4.64-6.49-15.77-7.42-15.77-7.42-13.07-40.75-57.41-86.7-120.07-86.7" fill="url(#a)" filter="url(#b)"/>
    </mask>
  </defs>
  <g data-name="Cloud 6">
    <g mask="url(#c)">
      <path data-name="Cloud 6" d="M194.63 142.85c-53.32 0-105.25 42.19-115.91 92.73-83.43 30.24-48.22 90.41 0 104.31 0 0 3.53 37.09 67 37.09 1.58 0 3.19 0 4.85-.07 19.14 9.17 36.76 12.24 51.78 12.24 30.46 0 50.22-12.62 50.22-12.62s9.55.39 24.27.39c38.1 0 110.86-2.65 142.63-21.72 10 2.74 18.31 3.9 25.17 3.9 35.92 0 32.32-31.73 32.32-31.73s28.54-7.54 26.42-32.91c-1.59-19.17-19.5-30-36.38-30-7.62 0-15 2.19-20.63 6.8-23.2-26.17-62.25-36.23-93.59-36.23a123.33 123.33 0 0 0-22.31 1.97c-4.64-6.49-15.77-7.42-15.77-7.42-13.07-40.75-57.41-86.7-120.07-86.7" fill="#2b261e"/>
    </g>
    <path data-name="Cloud 6" d="M194.63 142.85c-53.32 0-105.25 42.19-115.91 92.73-83.43 30.24-48.22 90.41 0 104.31 0 0 3.53 37.09 67 37.09 1.58 0 3.19 0 4.85-.07 19.14 9.17 36.76 12.24 51.78 12.24 30.46 0 50.22-12.62 50.22-12.62s9.55.39 24.27.39c38.1 0 110.86-2.65 142.63-21.72 10 2.74 18.31 3.9 25.17 3.9 35.92 0 32.32-31.73 32.32-31.73s28.54-7.54 26.42-32.91c-1.59-19.17-19.5-30-36.38-30-7.62 0-15 2.19-20.63 6.8-23.2-26.17-62.25-36.23-93.59-36.23a123.33 123.33 0 0 0-22.31 1.97c-4.64-6.49-15.77-7.42-15.77-7.42-13.07-40.75-57.41-86.7-120.07-86.7" stroke="#aea38d" stroke-miterlimit="10" stroke-width="12.64" fill="none"/>
  </g>
</svg>

<svg xmlns="http://www.w3.org/2000/svg" width="512" height="512">
  <defs>
    <pattern id="_671" data-name="671" width="54.13" height="54.13" patternTransform="matrix(3.81 0 0 3.81 -733.32 -628.07)" patternUnits="userSpaceOnUse">
      <path fill="none" d="M0 0h54.13v54.13H0z"/>
      <path class="cls-3" d="M1 4.23C2.21 4 4 2.9 7.12 3.31M9.12 3.73A8.89 8.89 0 0 0 16 4M17.71 3.31c3.58-.66 6 .92 7.5 1.09M27.29 4.4c1.5 0 2.59-.75 3.83-1.09a7.28 7.28 0 0 1 4.42.09M37.21 4.06c1.17.25 5.17.34 7.33-.75M46.38 3.31a7.24 7.24 0 0 1 3.55.5c1.36.92 3.19.42 3.61.5M3 8.15a9.51 9.51 0 0 1-3 .77M12 9.15c-.42-.09-2.25.41-3.61-.5a7.17 7.17 0 0 0-3.56-.5M38.21 14.06c1.25-.25 3-1.33 6.17-.91M46.38 13.56a8.86 8.86 0 0 0 6.83.25M21.38 42.81c-3.17-.41-4.92.67-6.17.92M30.21 43.48a8.86 8.86 0 0 1-6.83-.25M39.46 43.9c-1.5-.17-3.92-1.75-7.5-1.09M41.54 43.9c1.5 0 2.58-.75 3.84-1.09a7.25 7.25 0 0 1 4.41.09M5.12 42.65a12.61 12.61 0 0 1-5.12.9M14.12 43.65c-.41-.09-2.24.41-3.6-.5a7.17 7.17 0 0 0-3.52-.5M0 53.49a9 9 0 0 0 1-.34M10.29 53.56c-1.5-.16-3.91-1.75-7.5-1.08M20.62 52.56a7.32 7.32 0 0 0-4.41-.08c-1.25.33-2.33 1.08-3.83 1.08M29.62 52.48c-2.16 1.08-6.16 1-7.33.75M38.62 53.48c-.41-.08-2.24.42-3.6-.5a7.28 7.28 0 0 0-3.56-.5M46.38 52.31c-3.17-.41-4.92.67-6.17.92M4.92 18.19a10.19 10.19 0 0 0-4.92.54M13.75 18.85a8.82 8.82 0 0 1-6.83-.25M23 19.27c-1.5-.17-3.92-1.75-7.5-1.08M33.33 18.27a7.24 7.24 0 0 0-4.41-.08c-1.25.33-2.34 1.08-3.84 1.08M42.33 18.19c-2.16 1.08-6.16 1-7.33.75M44.17 18.19a7.17 7.17 0 0 1 3.56.5c1.35.91 3.19.41 3.6.5M7.17 32.81c-3.17-.41-4.92.67-6.17.92M9.17 33.23a8.86 8.86 0 0 0 6.83.25M17.75 32.81c3.58-.66 6 .92 7.5 1.09M27.33 33.9c1.5 0 2.59-.75 3.84-1.09a7.25 7.25 0 0 1 4.41.09M37.25 33.56c1.17.25 5.17.34 7.33-.75M46.42 32.81a7.28 7.28 0 0 1 3.56.5c1.35.92 3.19.42 3.6.5M7.29 47.69c-3.17-.42-4.91.66-6.17.91M9.29 48.1a8.82 8.82 0 0 0 6.83.25M17.88 47.69c3.58-.67 6 .91 7.5 1.08M27.46 48.77c1.5 0 2.58-.75 3.83-1.08a7.27 7.27 0 0 1 4.42.08M37.38 48.44c1.16.25 5.16.33 7.33-.75M53.71 48.69c-.42-.09-2.25.41-3.61-.5a7.17 7.17 0 0 0-3.56-.5M19 8.19c-3.16-.42-4.92.66-6.16.91M27.88 8.85A8.85 8.85 0 0 1 21 8.6M29.62 8.19c3.59-.67 6 .91 7.5 1.08M39.21 9.27c1.5 0 2.58-.75 3.83-1.08a7.27 7.27 0 0 1 4.42.08M7.88 14.19C6.38 14 4 12.44.38 13.1M10 14.19c1.5 0 2.58-.75 3.83-1.09a7.28 7.28 0 0 1 4.42.09M19.88 13.85c1.16.25 5.16.34 7.33-.75M29 13.1a7.28 7.28 0 0 1 3.56.5c1.36.92 3.19.42 3.61.5M7 22.94c-3.17-.42-4.92.66-6.17.91M15.79 23.6A8.82 8.82 0 0 1 9 23.35M17.54 22.94c3.58-.67 6 .91 7.5 1.08M27.12 24c1.5 0 2.59-.75 3.84-1.08a7.27 7.27 0 0 1 4.42.08M37 23.69c1.17.25 5.17.33 7.34-.75M46.21 22.94a7.17 7.17 0 0 1 3.56.5c1.35.91 3.19.41 3.61.5M20.71 27.81c-3.17-.41-4.92.67-6.17.92M29.54 28.48a8.87 8.87 0 0 1-6.83-.25M38.79 28.9c-1.5-.17-3.91-1.75-7.5-1.09M40.88 28.9c1.5 0 2.58-.75 3.83-1.09a7.25 7.25 0 0 1 4.41.09M15.79 38.85c1.25-.25 3-1.33 6.17-.91M24 38.35a8.82 8.82 0 0 0 6.83.25M32.54 37.94c3.58-.67 6 .91 7.5 1.08M42.12 39c1.5 0 2.59-.75 3.84-1.08a7.27 7.27 0 0 1 4.42.08M5.5 37.81a13.14 13.14 0 0 1-5.5.91M7.33 37.81a7.28 7.28 0 0 1 3.56.5c1.36.92 3.19.42 3.61.5M4.12 27.94a11.23 11.23 0 0 1-4.12.88M13.12 28.94c-.41-.09-2.24.41-3.6-.5a7.17 7.17 0 0 0-3.52-.5M49.75 8.9a16.48 16.48 0 0 0 4.37 0M51.92 43.4a11.58 11.58 0 0 0 2.2.15M48.33 52.9a9.35 9.35 0 0 0 5.79.59M52.88 19.1a10.14 10.14 0 0 0 1.24-.37M52.29 38.56a10.3 10.3 0 0 0 1.83.16M50.92 28.69a14.85 14.85 0 0 0 3.2.13"/>
      <path class="cls-4" d="M.46 1.88h0M2.46 1.56h0M4.28.94h0M6.2.81h0M8.15.94h0M10.09 1.38h0M11.94 1.75h0M13.96 1.88h0M16.02 1.56h0M17.84.94h0M19.76.81h0M21.71.94h0M23.65 1.38h0M25.38 1.75h0M27.39 1.82h0M29.45 1.5h0M31.26.88h0M33.19.76h0M35.14.88h0M37.08 1.32h0M38.98 1.69h0M40.96 1.82h0M43.01 1.5h0M44.83.88h0M46.76.76h0M48.71.88h0M50.65 1.32h0M52.38 1.69h0M.82 6.45h0M2.64 5.83h0M4.57 5.7h0M6.52 5.83h0M8.46 6.27h0M10.3 6.64h0M12.33 6.77h0M14.39 6.45h0M16.21 5.83h0M18.13 5.7h0M20.08 5.83h0M22.02 6.27h0M23.75 6.64h0M25.76 6.71h0M27.81 6.39h0M29.63 5.77h0M31.56 5.65h0M33.51 5.77h0M35.44 6.21h0M37.35 6.58h0M39.32 6.71h0M41.38 6.39h0M43.2 5.77h0M45.13 5.65h0M47.07 5.77h0M49.01 6.21h0M50.74 6.58h0M52.73 6.65h0M.48 10.83h0M2.4 10.7h0M4.35 10.83h0M6.29 11.27h0M8.13 11.64h0M10.16 11.77h0M12.22 11.45h0M14.04 10.83h0M15.96 10.7h0M17.91 10.83h0M19.85 11.27h0M21.58 11.64h0M23.59 11.71h0M25.65 11.39h0M27.46 10.77h0M29.39 10.65h0M31.34 10.77h0M33.28 11.21h0M35.18 11.58h0M37.16 11.71h0M39.21 11.39h0M41.03 10.77h0M42.96 10.65h0M44.91 10.77h0M46.84 11.21h0M48.58 11.58h0M50.57 11.65h0M52.62 11.33h0M.64 15.66h0M2.57 15.54h0M4.52 15.66h0M6.46 16.1h0M8.3 16.47h0M10.33 16.6h0M12.39 16.28h0M14.21 15.66h0M16.13 15.54h0M18.08 15.66h0M20.02 16.1h0M21.75 16.47h0M23.76 16.54h0M25.81 16.22h0M27.63 15.6h0M29.56 15.48h0M31.51 15.6h0M33.44 16.05h0M35.35 16.42h0M37.32 16.54h0M39.38 16.22h0M41.2 15.6h0M43.13 15.48h0M45.07 15.6h0M47.01 16.05h0M48.74 16.42h0M50.73 16.48h0M52.79 16.17h0M1.16 21.45h0M2.98 20.83h0M4.9 20.7h0M6.85 20.83h0M8.79 21.27h0M10.63 21.64h0M12.66 21.77h0M14.72 21.45h0M16.54 20.83h0M18.46 20.7h0M20.41 20.83h0M22.35 21.27h0M24.08 21.64h0M26.09 21.71h0M28.15 21.39h0M29.96 20.77h0M31.89 20.65h0M33.84 20.77h0M35.78 21.21h0M37.68 21.58h0M39.66 21.71h0M41.71 21.39h0M43.53 20.77h0M45.46 20.65h0M47.41 20.77h0M49.34 21.21h0M51.08 21.58h0M53.07 21.65h0M.99 26.11h0M2.81 25.49h0M4.74 25.37h0M6.68 25.49h0M8.62 25.94h0M10.47 26.31h0M12.5 26.43h0M14.55 26.11h0M16.37 25.49h0M18.3 25.37h0M20.25 25.49h0M22.18 25.94h0M23.92 26.31h0M25.92 26.38h0M27.98 26.06h0M29.8 25.44h0M31.72 25.31h0M33.67 25.44h0M35.61 25.88h0M37.51 26.25h0M39.49 26.38h0M41.55 26.06h0M43.37 25.44h0M45.29 25.31h0M47.24 25.44h0M49.18 25.88h0M50.91 26.25h0M52.9 26.32h0M.47 31.43h0M2.32 31.11h0M4.14 30.49h0M6.07 30.37h0M8.02 30.49h0M9.96 30.94h0M11.8 31.31h0M13.83 31.43h0M15.89 31.11h0M17.71 30.49h0M19.63 30.37h0M21.58 30.49h0M23.52 30.94h0M25.25 31.31h0M27.26 31.38h0M29.31 31.06h0M31.13 30.44h0M33.06 30.31h0M35.01 30.44h0M36.94 30.88h0M38.85 31.25h0M40.82 31.38h0M42.88 31.06h0M44.7 30.44h0M46.63 30.31h0M48.57 30.44h0M50.51 30.88h0M52.24 31.25h0M1.32 36.43h0M3.32 36.11h0M5.14 35.49h0M7.07 35.37h0M9.02 35.49h0M10.96 35.94h0M12.8 36.31h0M14.83 36.43h0M16.89 36.11h0M18.71 35.49h0M20.63 35.37h0M22.58 35.49h0M24.52 35.94h0M26.25 36.31h0M28.26 36.38h0M30.31 36.06h0M32.13 35.44h0M34.06 35.31h0M36.01 35.44h0M37.94 35.88h0M39.85 36.25h0M41.82 36.38h0M43.88 36.06h0M45.7 35.44h0M47.63 35.31h0M49.57 35.44h0M51.51 35.88h0M53.24 36.25h0M1.16 41.27h0M3.16 40.95h0M4.98 40.33h0M6.9 40.2h0M8.85 40.33h0M10.79 40.77h0M12.63 41.14h0M14.66 41.27h0M16.72 40.95h0M18.54 40.33h0M20.46 40.2h0M22.41 40.33h0M24.35 40.77h0M26.08 41.14h0M28.09 41.21h0M30.15 40.89h0M31.96 40.27h0M33.89 40.15h0M35.84 40.27h0M37.78 40.71h0M39.68 41.08h0M41.66 41.21h0M43.71 40.89h0M45.53 40.27h0M47.46 40.15h0M49.41 40.27h0M51.34 40.71h0M53.08 41.08h0M1.88 45.99h0M3.69 45.37h0M5.62 45.24h0M7.57 45.37h0M9.51 45.81h0M11.35 46.18h0M13.38 46.31h0M15.44 45.99h0M17.26 45.37h0M19.18 45.24h0M21.13 45.37h0M23.07 45.81h0M24.8 46.18h0M26.81 46.25h0M28.86 45.93h0M30.68 45.31h0M32.61 45.19h0M34.56 45.31h0M36.49 45.76h0M38.4 46.13h0M40.38 46.25h0M42.43 45.93h0M44.25 45.31h0M46.18 45.19h0M48.13 45.31h0M50.06 45.76h0M51.79 46.13h0M53.78 46.19h0M.6 50.88h0M2.42 50.26h0M4.35 50.13h0M6.3 50.26h0M8.24 50.7h0M10.08 51.07h0M12.11 51.2h0M14.17 50.88h0M15.99 50.26h0M17.91 50.13h0M19.86 50.26h0M21.8 50.7h0M23.53 51.07h0M25.54 51.14h0M27.59 50.82h0M29.41 50.2h0M31.34 50.08h0M33.29 50.2h0M35.22 50.65h0M37.13 51.01h0M39.1 51.14h0M41.16 50.82h0M42.98 50.2h0M44.91 50.08h0M46.85 50.2h0M48.79 50.65h0M50.52 51.01h0M52.51 51.08h0"/>
    </pattern>
    <filter id="luminosity-noclip" x="-.05" y="1.11" width="503.55" height="388.04" filterUnits="userSpaceOnUse" color-interpolation-filters="sRGB">
      <feFlood flood-color="#fff" result="bg"/>
      <feBlend in="SourceGraphic" in2="bg"/>
    </filter>
    <style>
      .cls-3,.cls-4{fill:none;stroke:#000}.cls-3{stroke-width:.3px}.cls-4{stroke-linecap:round;stroke-width:.7px}
    </style>
    <mask id="mask" x="-.05" y="1.11" width="503.55" height="388.04" maskUnits="userSpaceOnUse">
      <path id="Cloud_6" data-name="Cloud 6" d="M194.63 142.85c-53.32 0-105.25 42.19-115.91 92.73-83.43 30.24-48.22 90.41 0 104.31 0 0 3.53 37.09 67 37.09 1.58 0 3.19 0 4.85-.07 19.14 9.17 36.76 12.24 51.78 12.24 30.46 0 50.22-12.62 50.22-12.62s9.55.39 24.27.39c38.1 0 110.86-2.65 142.63-21.72 10 2.74 18.31 3.9 25.17 3.9 35.92 0 32.32-31.73 32.32-31.73s28.54-7.54 26.42-32.91c-1.59-19.17-19.5-30-36.38-30-7.62 0-15 2.19-20.63 6.8-23.2-26.17-62.25-36.23-93.59-36.23a123.33 123.33 0 0 0-22.31 1.97c-4.64-6.49-15.77-7.42-15.77-7.42-13.07-40.75-57.41-86.7-120.07-86.7" fill="url(#_671)" filter="url(#luminosity-noclip)"/>
    </mask>
  </defs>
  <g id="Cloud_6-2" data-name="Cloud 6">
    <g id="Cloud_6-3" data-name="Cloud 6">
      <g mask="url(#mask)">
        <path id="Cloud_6-4" data-name="Cloud 6" d="M194.63 142.85c-53.32 0-105.25 42.19-115.91 92.73-83.43 30.24-48.22 90.41 0 104.31 0 0 3.53 37.09 67 37.09 1.58 0 3.19 0 4.85-.07 19.14 9.17 36.76 12.24 51.78 12.24 30.46 0 50.22-12.62 50.22-12.62s9.55.39 24.27.39c38.1 0 110.86-2.65 142.63-21.72 10 2.74 18.31 3.9 25.17 3.9 35.92 0 32.32-31.73 32.32-31.73s28.54-7.54 26.42-32.91c-1.59-19.17-19.5-30-36.38-30-7.62 0-15 2.19-20.63 6.8-23.2-26.17-62.25-36.23-93.59-36.23a123.33 123.33 0 0 0-22.31 1.97c-4.64-6.49-15.77-7.42-15.77-7.42-13.07-40.75-57.41-86.7-120.07-86.7" fill="#2b261e"/>
      </g>
      <path id="Cloud_6-5" data-name="Cloud 6" d="M194.63 142.85c-53.32 0-105.25 42.19-115.91 92.73-83.43 30.24-48.22 90.41 0 104.31 0 0 3.53 37.09 67 37.09 1.58 0 3.19 0 4.85-.07 19.14 9.17 36.76 12.24 51.78 12.24 30.46 0 50.22-12.62 50.22-12.62s9.55.39 24.27.39c38.1 0 110.86-2.65 142.63-21.72 10 2.74 18.31 3.9 25.17 3.9 35.92 0 32.32-31.73 32.32-31.73s28.54-7.54 26.42-32.91c-1.59-19.17-19.5-30-36.38-30-7.62 0-15 2.19-20.63 6.8-23.2-26.17-62.25-36.23-93.59-36.23a123.33 123.33 0 0 0-22.31 1.97c-4.64-6.49-15.77-7.42-15.77-7.42-13.07-40.75-57.41-86.7-120.07-86.7" stroke="#aea38d" stroke-miterlimit="10" stroke-width="12.64" fill="none"/>
    </g>
  </g>
</svg>
